icons/dark/json.svg

<svg width="16" height="16" viewBox="0 0 16 16" fill="none" xmlns="http://www.w3.org/2000/svg">
<path d="M3.33333 2H4.66667V3.33333H3.33333V6.66667C3.33333 7.02029 3.19286 7.35943 2.94281 7.60948C2.69276 7.85952 2.35362 8 2 8C2.35362 8 2.69276 8.14048 2.94281 8.39052C3.19286 8.64057 3.33333 8.97971 3.33333 9.33333V12.6667H4.66667V14H3.33333C2.62 13.82 2 13.4 2 12.6667V10C2 9.64638 1.85952 9.30724 1.60948 9.05719C1.35943 8.80714 1.02029 8.66667 0.666667 8.66667H0V7.33333H0.666667C1.02029 7.33333 1.35943 7.19286 1.60948 6.94281C1.85952 6.69276 2 6.35362 2 6V3.33333C2 2.97971 2.14048 2.64057 2.39052 2.39052C2.64057 2.14048 2.97971 2 3.33333 2ZM12.6667 2C13.0203 2 13.3594 2.14048 13.6095 2.39052C13.8595 2.64057 14 2.97971 14 3.33333V6C14 6.35362 14.1405 6.69276 14.3905 6.94281C14.6406 7.19286 14.9797 7.33333 15.3333 7.33333H16V8.66667H15.3333C14.9797 8.66667 14.6406 8.80714 14.3905 9.05719C14.1405 9.30724 14 9.64638 14 10V12.6667C14 13.0203 13.8595 13.3594 13.6095 13.6095C13.3594 13.8595 13.0203 14 12.6667 14H11.3333V12.6667H12.6667V9.33333C12.6667 8.97971 12.8071 8.64057 13.0572 8.39052C13.3072 8.14048 13.6464 8 14 8C13.6464 8 13.3072 7.85952 13.0572 7.60948C12.8071 7.35943 12.6667 7.02029 12.6667 6.66667V3.33333H11.3333V2H12.6667ZM8 10C8.17681 10 8.34638 10.0702 8.4714 10.1953C8.59643 10.3203 8.66667 10.4899 8.66667 10.6667C8.66667 10.8435 8.59643 11.013 8.4714 11.1381C8.34638 11.2631 8.17681 11.3333 8 11.3333C7.82319 11.3333 7.65362 11.2631 7.5286 11.1381C7.40357 11.013 7.33333 10.8435 7.33333 10.6667C7.33333 10.4899 7.40357 10.3203 7.5286 10.1953C7.65362 10.0702 7.82319 10 8 10ZM5.33333 10C5.51014 10 5.67971 10.0702 5.80474 10.1953C5.92976 10.3203 6 10.4899 6 10.6667C6 10.8435 5.92976 11.013 5.80474 11.1381C5.67971 11.2631 5.51014 11.3333 5.33333 11.3333C5.15652 11.3333 4.98695 11.2631 4.86193 11.1381C4.7369 11.013 4.66667 10.8435 4.66667 10.6667C4.66667 10.4899 4.7369 10.3203 4.86193 10.1953C4.98695 10.0702 5.15652 10 5.33333 10ZM10.6667 10C10.8435 10 11.013 10.0702 11.1381 10.1953C11.2631 10.3203 11.3333 10.4899 11.3333 10.6667C11.3333 10.8435 11.2631 11.013 11.1381 11.1381C11.013 11.2631 10.8435 11.3333 10.6667 11.3333C10.4899 11.3333 10.3203 11.2631 10.1953 11.1381C10.0702 11.013 10 10.8435 10 10.6667C10 10.4899 10.0702 10.3203 10.1953 10.1953C10.3203 10.0702 10.4899 10 10.6667 10Z" fill="#C5C5C5"/>
</svg>

<svg xmlns="http://www.w3.org/2000/svg" width="16" height="16" fill="none" xmlns:v="https://vecta.io/nano"><path d="M3.333 2h1.333v1.333H3.333v3.333c0 .354-.14.693-.391.943S2.354 8 2 8c.354 0 .693.14.943.391s.391.589.391.943v3.333h1.333V14H3.333C2.62 13.82 2 13.4 2 12.667V10c0-.354-.14-.693-.391-.943s-.589-.391-.943-.391H0V7.333h.667c.354 0 .693-.14.943-.391S2 6.354 2 6V3.333c0-.354.14-.693.391-.943S2.98 2 3.333 2zm9.333 0c.354 0 .693.14.943.391s.39.589.39.943V6c0 .354.14.693.39.943s.589.391.943.391H16v1.333h-.667c-.354 0-.693.14-.943.391S14 9.646 14 10v2.667c0 .354-.14.693-.39.943s-.589.39-.943.39h-1.333v-1.333h1.333V9.333c0-.354.14-.693.39-.943S13.646 8 14 8c-.354 0-.693-.14-.943-.391s-.39-.589-.39-.943V3.333h-1.333V2h1.333zM8 10c.177 0 .346.07.471.195s.195.295.195.471-.07.346-.195.471-.295.195-.471.195-.346-.07-.471-.195-.195-.295-.195-.471.07-.346.195-.471S7.823 10 8 10zm-2.667 0c.177 0 .346.07.471.195s.195.295.195.471-.07.346-.195.471-.295.195-.471.195-.346-.07-.471-.195-.195-.295-.195-.471.07-.346.195-.471.295-.195.471-.195zm5.333 0c.177 0 .346.07.471.195s.195.295.195.471-.07.346-.195.471-.295.195-.471.195-.346-.07-.471-.195-.195-.295-.195-.471.07-.346.195-.471.295-.195.471-.195z" fill="#c5c5c5"/></svg>
